;FLAVOR:UltiGCode
;TIME:3877
;MATERIAL:1620
;MATERIAL2:0

;Layer count: 67
;LAYER:0
M107
G0 F9000 X99.848 Y86.003 Z0.300
;TYPE:SKIRT
G1 F1200 X103.254 Y84.951 E0.42777
G1 X104.834 Y84.947 E0.61737
G1 X106.163 Y85.179 E0.77926
G1 X107.316 Y85.511 E0.92325
G1 X108.308 Y85.871 E1.04988
G1 X109.098 Y86.199 E1.15253
G1 X109.712 Y86.468 E1.23297
G1 X111.588 Y87.413 E1.48504
G1 X113.696 Y88.738 E1.78382
G1 X115.833 Y90.373 E2.10671
G1 X117.869 Y92.315 E2.44434
G1 X119.508 Y94.396 E2.76222
G1 X123.279 Y92.123 E3.29058
G1 X124.329 Y91.574 E3.43277
G1 X125.252 Y91.133 E3.55552
G1 X125.903 Y90.787 E3.64399
G1 X126.246 Y90.543 E3.69450
G1 X126.339 Y90.440 E3.71115
G1 X126.374 Y90.364 E3.72119
G1 X127.104 Y85.133 E4.35500
G1 X132.526 Y87.955 E5.08849
G1 X133.747 Y89.647 E5.33888
G1 X134.313 Y91.253 E5.54321
G1 X134.591 Y92.706 E5.72074
G1 X134.742 Y94.027 E5.88029
G1 X134.845 Y95.140 E6.01442
G1 X134.986 Y96.277 E6.15190
G1 X135.112 Y98.537 E6.42353
G1 X134.858 Y101.087 E6.73104
G1 X134.312 Y103.607 E7.04046
G1 X133.523 Y106.015 E7.34453
G1 X132.978 Y107.204 E7.50149
G1 X133.427 Y107.403 E7.56042
G1 X134.761 Y108.131 E7.74279
G1 X136.181 Y109.079 E7.94767
G1 X137.471 Y109.951 E8.13452
G1 X138.635 Y110.634 E8.29647
G1 X139.583 Y111.029 E8.41971
G1 X140.222 Y111.133 E8.49740
G1 X142.169 Y110.806 E8.73431
G1 X144.368 Y111.710 E9.01962
G1 X145.352 Y113.771 E9.29368
G1 X145.238 Y115.262 E9.47312
G1 X144.982 Y116.056 E9.57323
G1 X144.740 Y116.596 E9.64424
G1 X144.355 Y117.274 E9.73781
G1 X143.850 Y117.996 E9.84354
G1 X143.292 Y118.661 E9.94771
G1 X142.705 Y119.262 E10.04852
G1 X142.101 Y119.810 E10.14639
G1 X141.488 Y120.306 E10.24101
G1 X140.877 Y120.755 E10.33200
G1 X140.257 Y121.169 E10.42146
G1 X138.383 Y122.286 E10.68326
G1 X136.248 Y123.367 E10.97043
G1 X133.884 Y124.315 E11.27607
G1 X131.315 Y125.031 E11.59610
G1 X128.565 Y125.396 E11.92899
G1 X128.390 Y125.389 E11.95001
G1 X128.408 Y125.546 E11.96897
G1 X128.488 Y126.181 E12.04577
G1 X128.593 Y127.422 E12.19522
G1 X128.558 Y128.798 E12.36040
G1 X128.447 Y130.013 E12.50680
G1 X128.333 Y131.052 E12.63223
G1 X128.261 Y131.946 E12.73986
G1 X128.261 Y132.631 E12.82206
G1 X128.313 Y133.018 E12.86892
G1 X128.366 Y133.082 E12.87889
G1 X129.126 Y133.947 E13.01706
G1 X129.704 Y134.877 E13.14846
G1 X131.408 Y139.913 E13.78644
G1 X125.586 Y139.913 E14.48508
G1 X124.901 Y139.712 E14.57074
G1 X124.330 Y139.628 E14.64000
G1 X123.833 Y139.584 E14.69987
G1 X122.669 Y139.417 E14.84098
G1 X121.844 Y139.174 E14.94419
G1 X120.029 Y138.373 E15.18226
G1 X118.141 Y137.367 E15.43897
G1 X116.211 Y136.169 E15.71156
G1 X114.323 Y134.799 E15.99148
G1 X112.567 Y133.268 E16.27105
G1 X111.840 Y132.451 E16.40228
G1 X111.504 Y132.535 E16.44384
G1 X110.002 Y132.464 E16.62429
G1 X108.646 Y131.997 E16.79639
G1 X108.272 Y131.743 E16.85064
G1 X108.257 Y131.752 E16.85274
G1 X107.735 Y132.067 E16.92590
G1 X107.151 Y132.412 E17.00729
G1 X106.004 Y133.009 E17.16246
G1 X104.950 Y133.500 E17.30199
G1 X104.136 Y133.916 E17.41169
G1 X103.633 Y134.252 E17.48428
G1 X103.427 Y134.462 E17.51958
G1 X103.342 Y134.622 E17.54132
G1 X102.723 Y138.063 E17.96087
G1 X98.496 Y138.063 E18.46811
G1 X95.871 Y134.902 E18.96117
G1 X94.913 Y131.655 E19.36741
G1 X94.679 Y128.326 E19.76788
G1 X94.891 Y124.993 E20.16864
G1 X95.423 Y121.824 E20.55425
G1 X96.205 Y118.996 E20.90634
G1 X96.838 Y117.587 E21.09170
G1 X95.374 Y116.831 E21.28942
G1 X93.475 Y115.574 E21.56270
G1 X91.876 Y114.477 E21.79540
G1 X90.654 Y113.774 E21.96457
G1 X89.958 Y113.550 E22.05231
G1 X89.849 Y113.578 E22.06581
G1 X89.346 Y113.759 E22.12996
G1 X88.520 Y114.064 E22.23563
G1 X83.973 Y114.064 E22.78127
G1 X84.987 Y109.133 E23.38537
G1 X85.527 Y107.886 E23.54843
G1 X86.215 Y106.855 E23.69717
G1 X86.956 Y106.025 E23.83069
G1 X87.687 Y105.359 E23.94936
G1 X88.364 Y104.821 E24.05313
G1 X88.995 Y104.354 E24.14733
G1 X90.677 Y103.208 E24.39156
G1 X92.734 Y102.018 E24.67673
G1 X95.091 Y100.915 E24.98901
G1 X97.716 Y100.024 E25.32166
G1 X100.577 Y99.487 E25.67098
G1 X101.498 Y99.484 E25.78150
G1 X101.462 Y99.273 E25.80718
G1 X101.312 Y97.657 E26.00194
G1 X101.310 Y96.018 E26.19862
G1 X101.479 Y94.565 E26.37415
G1 X101.566 Y94.042 E26.43778
G1 X101.620 Y93.596 E26.49169
G1 X101.657 Y93.106 E26.55065
G1 X101.672 Y92.602 E26.61116
G1 X101.662 Y92.176 E26.66230
G1 X101.631 Y91.849 E26.70171
G1 X101.616 Y91.774 E26.71089
G1 X101.235 Y91.361 E26.77832
G1 X99.848 Y89.876 E27.02216
G1 X99.848 Y86.003 E27.48692
G10
G0 F9000 X119.586 Y99.787
;TYPE:FILL
G11
G1 F1200 X119.670 Y99.871 E27.50117
G0 F9000 X117.663 Y103.905
G0 X117.384 Y106.121
G0 X119.903 Y109.562
G0 X120.652 Y111.785
G0 X120.484 Y114.096
G0 X119.388 Y116.169
G0 X117.158 Y118.797
G0 X116.742 Y119.857
G0 X118.255 Y122.160
G1 F1200 X118.145 Y122.270 E27.51984
G0 F9000 X115.589 Y119.147
G0 X113.044 Y119.046
G0 X110.011 Y124.853
G0 X106.886 Y127.959
G0 X101.437 Y131.127
G0 X99.848 Y132.957
G0 X99.151 Y132.766
G0 X98.521 Y127.652
G0 X99.695 Y121.280
G0 X101.386 Y118.532
G0 X103.373 Y115.470
G0 X103.044 Y114.773
G0 X100.556 Y114.698
G1 F1200 X100.238 Y114.380 E27.57381
G0 F9000 X107.204 Y114.517
G0 X108.494 Y113.826
G0 X112.146 Y117.398
G0 X114.473 Y118.172
G0 X117.367 Y117.645
G0 X119.388 Y116.169
G0 X120.106 Y114.772
G0 X119.821 Y117.389
G0 X124.705 Y120.214
G0 X128.456 Y121.167
G0 X132.543 Y120.538
G0 X138.417 Y117.824
G0 X140.481 Y115.855
G0 X140.445 Y115.066
G0 X140.636 Y115.180
G1 F1200 X140.857 Y115.401 E27.61131
G0 F9000 X140.497 Y115.862
;TYPE:WALL-INNER
G1 F1200 X140.497 Y115.018 E27.71259
G1 X139.047 Y114.878 E27.88740
G1 X138.306 Y114.692 E27.97908
G1 X137.650 Y114.423 E28.06416
G1 X137.047 Y114.090 E28.14682
G1 X138.531 Y114.707 E28.33968
G1 X140.232 Y114.984 E28.54649
G1 X141.385 Y114.791 E28.68677
G1 X141.140 Y115.240 E28.74815
G1 X140.833 Y115.679 E28.81243
G1 X140.471 Y116.110 E28.87998
G1 X140.067 Y116.525 E28.94948
G1 X139.626 Y116.924 E29.02084
G1 X139.167 Y117.295 E29.09167
G1 X138.698 Y117.639 E29.16146
G1 X138.213 Y117.964 E29.23152
G1 X136.552 Y118.954 E29.46356
G1 X134.682 Y119.901 E29.71509
G1 X132.663 Y120.711 E29.97614
G1 X130.553 Y121.298 E30.23896
G1 X128.390 Y121.586 E30.50081
G1 X126.236 Y121.494 E30.75953
G1 X123.701 Y120.843 E31.07360
G1 X123.215 Y121.365 E31.15918
G1 X123.445 Y122.053 E31.24623
G1 X123.700 Y122.600 E31.31866
G1 X123.964 Y123.078 E31.38418
G1 X124.191 Y123.542 E31.44617
G1 X124.306 Y123.872 E31.48811
G1 X124.471 Y124.658 E31.58448
G1 X124.637 Y126.018 E31.74889
G1 X124.707 Y126.568 E31.81542
G1 X124.789 Y127.535 E31.93188
G1 X124.763 Y128.571 E32.05624
G1 X124.665 Y129.638 E32.18482
G1 X124.549 Y130.703 E32.31338
G1 X124.461 Y131.788 E32.44400
G1 X124.461 Y132.158 E32.48840
G1 X124.425 Y131.774 E32.53468
G1 X124.444 Y131.051 E32.62147
G1 X124.516 Y130.334 E32.70795
G1 X124.609 Y129.566 E32.80078
G1 X124.681 Y128.773 E32.89633
G1 X124.689 Y127.947 E32.99546
G1 X124.590 Y127.115 E33.09600
G1 X124.362 Y126.039 E33.22799
G1 X124.122 Y125.033 E33.35210
G1 X123.854 Y124.072 E33.47182
G1 X123.549 Y123.150 E33.58835
G1 X123.194 Y122.264 E33.70289
G1 X122.783 Y121.412 E33.81640
G1 X122.297 Y120.579 E33.93213
G1 X121.734 Y119.837 E34.04390
G1 X121.290 Y119.302 E34.12733
G1 X120.806 Y118.759 E34.21462
G1 X120.321 Y118.274 E34.29693
G1 X119.818 Y117.877 E34.37382
G1 X119.214 Y117.722 E34.44865
G1 X118.526 Y118.107 E34.54326
G1 X118.084 Y118.390 E34.60624
G1 X117.633 Y118.619 E34.66694
G1 X117.143 Y118.782 E34.72890
G1 X116.711 Y119.862 E34.86849
G1 X117.438 Y120.783 E35.00929
G1 X117.996 Y121.453 E35.11392
G1 X118.232 Y121.799 E35.16418
G1 X118.380 Y122.089 E35.20325
G1 X118.459 Y122.341 E35.23494
G1 X118.540 Y122.962 E35.31009
G1 X118.584 Y123.676 E35.39593
G1 X118.588 Y123.822 E35.41346
G1 X118.523 Y123.542 E35.44796
G1 X118.235 Y122.755 E35.54852
G1 X117.880 Y122.062 E35.64196
G1 X117.478 Y121.445 E35.73032
G1 X117.051 Y120.887 E35.81464
G1 X116.615 Y120.365 E35.89626
G1 X116.187 Y119.862 E35.97551
G1 X115.598 Y119.130 E36.08826
G1 X112.975 Y118.975 E36.40357
G1 X113.033 Y120.631 E36.60241
G1 X113.037 Y121.640 E36.72349
G1 X113.032 Y122.692 E36.84973
G1 X113.043 Y123.742 E36.97574
G1 X113.094 Y124.772 E37.09949
G1 X113.211 Y125.761 E37.21900
G1 X113.426 Y126.701 E37.33471
G1 X114.264 Y128.631 E37.58720
G1 X115.485 Y130.361 E37.84130
G1 X117.004 Y131.881 E38.09916
G1 X118.740 Y133.198 E38.36065
G1 X120.624 Y134.317 E38.62360
G1 X122.586 Y135.244 E38.88400
G1 X123.978 Y135.766 E39.06239
G1 X123.482 Y135.695 E39.12252
G1 X123.150 Y135.597 E39.16406
G1 X121.696 Y134.955 E39.35479
G1 X120.041 Y134.073 E39.57983
G1 X118.327 Y133.009 E39.82192
G1 X116.688 Y131.820 E40.06490
G1 X115.247 Y130.564 E40.29429
G1 X114.115 Y129.292 E40.49862
G1 X113.192 Y127.713 E40.71810
G1 X112.683 Y127.713 E40.77918
G1 X112.742 Y127.008 E40.86408
G1 X112.523 Y126.309 E40.95198
G1 X112.090 Y125.813 E41.03098
G1 X112.275 Y125.813 E41.05318
G1 X112.178 Y123.594 E41.31972
G1 X111.321 Y123.371 E41.42598
G1 X109.983 Y125.532 E41.73099
G1 X110.169 Y125.569 E41.75374
G1 X109.770 Y125.786 E41.80825
G1 X109.368 Y126.394 E41.89571
G1 X109.349 Y126.517 E41.91065
G1 X109.335 Y126.456 E41.91816
G1 X108.152 Y127.290 E42.09185
G1 X107.689 Y127.606 E42.15912
G1 X107.221 Y127.914 E42.22635
G1 X106.755 Y128.212 E42.29272
G1 X106.276 Y128.509 E42.36036
G1 X105.789 Y128.803 E42.42862
G1 X105.299 Y129.092 E42.49688
G1 X104.334 Y129.594 E42.62742
G1 X103.273 Y130.090 E42.76796
G1 X102.888 Y130.287 E42.81986
G1 X106.887 Y127.960 E43.37507
G1 X108.089 Y127.009 E43.55899
G1 X109.123 Y125.981 E43.73396
G1 X110.012 Y124.854 E43.90621
G1 X110.771 Y123.620 E44.08006
G1 X111.421 Y122.271 E44.25975
G1 X111.982 Y120.793 E44.44946
G1 X112.618 Y118.709 E44.71093
G1 X111.896 Y118.337 E44.80839
G1 X111.245 Y117.890 E44.90315
G1 X110.530 Y117.376 E45.00882
G1 X110.168 Y117.159 E45.05947
G1 X109.856 Y117.070 E45.09840
G1 X109.622 Y117.050 E45.12659
G1 X109.422 Y117.088 E45.15102
G1 X109.116 Y117.228 E45.19140
G1 X108.793 Y117.640 E45.25422
G1 X108.579 Y118.168 E45.32258
G1 X108.837 Y117.008 E45.46519
G1 X108.889 Y115.733 E45.61831
G1 X108.557 Y113.700 E45.86550
G1 X106.453 Y114.789 E46.14980
G1 X105.084 Y115.565 E46.33864
G1 X103.756 Y116.430 E46.52882
G1 X102.509 Y117.409 E46.71907
G1 X101.385 Y118.530 E46.90956
G1 X100.427 Y119.818 E47.10219
G1 X99.694 Y121.279 E47.29833
G1 X99.493 Y121.859 E47.37200
G1 X99.341 Y122.427 E47.44255
G1 X99.222 Y122.996 E47.51231
G1 X99.124 Y123.572 E47.58242
G1 X99.038 Y124.155 E47.65314
G1 X98.952 Y124.748 E47.72505
G1 X98.856 Y125.365 E47.79998
G1 X98.768 Y125.876 E47.86220
G1 X98.676 Y126.436 E47.93030
G1 X98.589 Y127.031 E48.00246
G1 X98.542 Y127.463 E48.05461
G1 X98.671 Y125.429 E48.29918
G1 X99.139 Y122.642 E48.63830
G1 X99.790 Y120.289 E48.93127
G1 X100.522 Y118.661 E49.14547
G1 X100.816 Y118.235 E49.20758
G1 X101.150 Y117.822 E49.27132
G1 X101.525 Y117.411 E49.33808
G1 X101.910 Y117.019 E49.40401
G1 X102.319 Y116.614 E49.47308
G1 X102.733 Y116.200 E49.54334
G1 X103.416 Y115.477 E49.66269
G1 X103.065 Y114.736 E49.76109
G1 X100.755 Y114.896 E50.03895
G1 X99.018 Y114.435 E50.25461
G1 X97.299 Y113.548 E50.48673
G1 X96.086 Y112.746 E50.66123
G1 X96.595 Y113.009 E50.72998
G1 X97.156 Y113.241 E50.80283
G1 X97.717 Y113.456 E50.87492
G1 X98.290 Y113.658 E50.94783
G1 X98.873 Y113.846 E51.02134
G1 X99.461 Y114.022 E51.09499
G1 X100.054 Y114.188 E51.16889
G1 X100.680 Y114.352 E51.24654
G1 X102.560 Y114.614 E51.47432
G1 X103.444 Y114.603 E51.58041
G1 X104.310 Y114.563 E51.68444
G1 X105.172 Y114.477 E51.78839
G1 X106.007 Y114.334 E51.89005
G1 X106.791 Y114.115 E51.98773
G1 X107.508 Y113.797 E52.08186
G1 X108.153 Y113.323 E52.17791
G1 X108.390 Y112.918 E52.23422
G1 X108.469 Y112.440 E52.29236
G1 X108.473 Y111.978 E52.34780
G1 X108.362 Y110.861 E52.48250
G1 X108.284 Y110.336 E52.54619
G1 X107.485 Y110.122 E52.64545
G1 X106.966 Y110.087 E52.70787
G1 X106.395 Y110.096 E52.77640
G1 X105.874 Y110.112 E52.83895
G1 X105.367 Y110.101 E52.89980
G1 X104.933 Y110.057 E52.95215
G1 X104.493 Y109.945 E53.00664
G1 X103.646 Y109.581 E53.11726
G1 X102.783 Y109.122 E53.23456
G1 X102.068 Y108.721 E53.33293
G1 X103.330 Y109.243 E53.49682
G1 X104.264 Y109.552 E53.61487
G1 X105.304 Y109.741 E53.74172
G1 X106.476 Y109.741 E53.88236
G1 X107.783 Y109.499 E54.04186
G1 X108.514 Y109.297 E54.13287
G1 X108.873 Y109.163 E54.17885
G1 X109.177 Y109.006 E54.21991
G1 X109.484 Y108.761 E54.26704
G1 X109.742 Y108.442 E54.31628
G1 X109.885 Y108.175 E54.35262
G1 X110.607 Y107.453 E54.47515
G1 X108.893 Y106.744 E54.69773
G1 X108.030 Y106.288 E54.81486
G1 X107.157 Y105.774 E54.93643
G1 X106.246 Y105.234 E55.06351
G1 X105.279 Y104.709 E55.19555
G1 X104.233 Y104.241 E55.33306
G1 X103.068 Y103.873 E55.47967
G1 X100.913 Y103.671 E55.73940
G1 X98.607 Y103.981 E56.01861
G1 X96.300 Y104.667 E56.30743
G1 X94.112 Y105.616 E56.59363
G1 X93.710 Y105.843 E56.64902
G1 X94.500 Y105.386 E56.75854
G1 X96.508 Y104.447 E57.02455
G1 X98.678 Y103.710 E57.29956
G1 X100.939 Y103.286 E57.57561
G1 X103.209 Y103.277 E57.84801
G1 X105.581 Y103.814 E58.13985
G1 X106.548 Y103.814 E58.25589
G1 X106.548 Y103.013 E58.35201
G1 X106.086 Y102.151 E58.46937
G1 X105.741 Y101.195 E58.59133
G1 X105.448 Y100.042 E58.73409
G1 X105.231 Y98.772 E58.88870
G1 X105.112 Y97.484 E59.04392
G1 X105.110 Y96.235 E59.19380
G1 X105.242 Y95.103 E59.33056
G1 X105.329 Y94.578 E59.39442
G1 X105.403 Y93.960 E59.46911
G1 X105.399 Y94.176 E59.49503
G1 X105.309 Y94.891 E59.58151
G1 X105.265 Y95.700 E59.67873
G1 X105.268 Y96.521 E59.77725
G1 X105.315 Y97.335 E59.87510
G1 X105.398 Y98.119 E59.96970
G1 X105.518 Y98.854 E60.05907
G1 X105.667 Y99.517 E60.14061
G1 X106.082 Y100.897 E60.31354
G1 X106.557 Y102.124 E60.47143
G1 X107.107 Y103.231 E60.61976
G1 X107.746 Y104.244 E60.76348
G1 X108.485 Y105.192 E60.90773
G1 X109.331 Y106.103 E61.05691
G1 X110.580 Y107.276 E61.26253
G1 X111.392 Y106.908 E61.36951
G1 X112.101 Y106.512 E61.46696
G1 X112.840 Y106.147 E61.56587
G1 X113.193 Y106.034 E61.61034
G1 X114.070 Y105.884 E61.71711
G1 X114.229 Y104.927 E61.83353
G1 X114.995 Y105.604 E61.95620
G1 X115.227 Y105.739 E61.98841
G1 X115.659 Y105.846 E62.04182
G1 X116.212 Y105.902 E62.10852
G1 X117.011 Y105.962 E62.20467
G1 X116.933 Y102.257 E62.64937
G1 X116.683 Y99.764 E62.95003
G1 X116.192 Y97.704 E63.20415
G1 X115.407 Y95.967 E63.43289
G1 X114.293 Y94.459 E63.65787
G1 X112.832 Y93.073 E63.89953
G1 X111.003 Y91.680 E64.17542
G1 X110.358 Y91.222 E64.27035
G1 X109.659 Y90.747 E64.37176
G1 X109.254 Y90.493 E64.42913
G1 X109.721 Y90.728 E64.49186
G1 X111.518 Y91.858 E64.74659
G1 X113.365 Y93.271 E65.02566
G1 X115.052 Y94.880 E65.30541
G1 X116.435 Y96.634 E65.57345
G1 X117.357 Y98.467 E65.81967
G1 X117.769 Y100.768 E66.10018
G1 X118.438 Y100.996 E66.18499
G1 X118.918 Y100.561 E66.26273
G1 X119.140 Y100.286 E66.30514
G1 X119.505 Y99.651 E66.39303
G1 X119.741 Y99.257 E66.44814
G1 X119.950 Y98.991 E66.48873
G1 X120.412 Y98.512 E66.56859
G1 X120.976 Y98.029 E66.65770
G1 X121.531 Y97.614 E66.74086
G1 X125.141 Y95.438 E67.24667
G1 X126.038 Y94.969 E67.36814
G1 X126.963 Y94.527 E67.49116
G1 X127.905 Y94.027 E67.61914
G1 X128.552 Y93.567 E67.71440
G1 X128.475 Y93.655 E67.72843
G1 X127.805 Y94.159 E67.82904
G1 X126.993 Y94.624 E67.94132
G1 X126.132 Y95.044 E68.05628
G1 X125.254 Y95.462 E68.17297
G1 X124.439 Y95.898 E68.28389
G1 X123.153 Y96.748 E68.46887
G1 X121.815 Y97.812 E68.67401
G1 X120.508 Y99.076 E68.89220
G1 X119.320 Y100.521 E69.11668
G1 X118.339 Y102.135 E69.34333
G1 X117.661 Y103.905 E69.57077
G1 X117.345 Y106.141 E69.84176
G1 X118.234 Y106.627 E69.96334
G1 X118.861 Y106.954 E70.04820
G1 X119.254 Y107.070 E70.09737
G1 X119.722 Y107.068 E70.15353
G1 X120.183 Y106.843 E70.21509
G1 X120.452 Y106.503 E70.26711
G1 X120.271 Y107.152 E70.34797
G1 X120.195 Y107.738 E70.41887
G1 X120.263 Y108.282 E70.48466
G1 X120.456 Y108.697 E70.53958
G1 X121.124 Y109.719 E70.68610
G1 X121.232 Y109.944 E70.71605
G1 X121.545 Y110.962 E70.84385
G1 X124.711 Y109.126 E71.28303
G1 X126.275 Y108.113 E71.50664
G1 X127.560 Y107.091 E71.70366
G1 X128.602 Y105.976 E71.88680
G1 X129.425 Y104.698 E72.06920
G1 X130.064 Y103.199 E72.26475
